img/svg/star.svg

<svg width="17" height="16" viewBox="0 0 17 16" fill="none" xmlns="http://www.w3.org/2000/svg">
<g clip-path="url(#clip0_2013_183)">
<path d="M4.5249 15.55C4.2999 15.55 4.0749 15.475 3.8999 15.35C3.5499 15.1 3.3499 14.65 3.4249 14.225L4.0749 10.2L1.2749 7.32495C0.974898 7.02495 0.874898 6.57495 0.999898 6.14995C1.1249 5.74995 1.4749 5.44995 1.8749 5.39995L5.7499 4.77495L7.4999 1.09995C7.6999 0.699951 8.0749 0.449951 8.4999 0.449951C8.9249 0.449951 9.3249 0.699951 9.4999 1.09995L11.2499 4.74995L15.0999 5.34995C15.4999 5.42495 15.8499 5.69995 15.9749 6.09995C16.1249 6.52495 15.9999 6.97495 15.6999 7.27495L12.9249 10.175L13.5749 14.225C13.6499 14.675 13.4749 15.1 13.0999 15.35C12.7499 15.6 12.3249 15.625 11.9499 15.425L8.4999 13.55L5.0499 15.425C4.8999 15.525 4.6999 15.55 4.5249 15.55ZM2.0749 6.49995C2.0749 6.49995 2.0749 6.52495 2.0749 6.54995L4.9999 9.54995C5.1749 9.72495 5.2499 9.99995 5.2249 10.25L4.5499 14.425C4.5499 14.425 4.5499 14.425 4.5499 14.45L8.1499 12.5C8.3749 12.375 8.6499 12.375 8.8999 12.5L12.4999 14.45C12.4999 14.45 12.4999 14.45 12.4999 14.425L11.8249 10.225C11.7749 9.97495 11.8749 9.72495 12.0499 9.52495L14.9749 6.52495C14.9999 6.49995 14.9749 6.47495 14.9749 6.47495L10.9499 5.84995C10.6999 5.79995 10.4749 5.64995 10.3749 5.39995L8.4999 1.59995L6.6999 5.42495C6.5999 5.64995 6.3749 5.82495 6.1249 5.87495L2.0749 6.49995Z" fill="#F59E0B"/>
</g>
<defs>
<clipPath id="clip0_2013_183">
<rect width="16" height="16" fill="white" transform="translate(0.5)"/>
</clipPath>
</defs>
</svg>

<?xml version="1.0" encoding="utf-8"?><svg width="17" height="16" fill="none" xmlns="http://www.w3.org/2000/svg" viewBox="0 0 17 16"><g clip-path="url(#bla)"><path d="M4.525 15.55c-.225 0-.45-.075-.625-.2-.35-.25-.55-.7-.475-1.125l.65-4.025-2.8-2.875c-.3-.3-.4-.75-.275-1.175.125-.4.475-.7.875-.75l3.875-.625L7.5 1.1c.2-.4.575-.65 1-.65.425 0 .825.25 1 .65l1.75 3.65 3.85.6c.4.075.75.35.875.75.15.425.025.875-.275 1.175l-2.775 2.9.65 4.05c.075.45-.1.875-.475 1.125-.35.25-.775.275-1.15.075L8.5 13.55l-3.45 1.875c-.15.1-.35.125-.525.125ZM2.075 6.5v.05L5 9.55c.175.175.25.45.225.7l-.675 4.175v.025l3.6-1.95a.796.796 0 0 1 .75 0l3.6 1.95v-.025l-.675-4.2c-.05-.25.05-.5.225-.7l2.925-3c.025-.025 0-.05 0-.05L10.95 5.85c-.25-.05-.475-.2-.575-.45L8.5 1.6 6.7 5.425c-.1.225-.325.4-.575.45l-4.05.625Z" fill="#F59E0B"/></g><defs><clipPath id="bla"><path fill="#fff" transform="translate(.5)" d="M0 0h16v16H0z"/></clipPath></defs></svg>
